dist/img/right-arrow.svg

<svg xmlns="http://www.w3.org/2000/svg"><path fill-rule="evenodd" opacity=".502" fill="#F3F5F7" d="M26.274 5.856V6.88h-.344l.333.337-4.71 4.772-1.332-1.35 3.71-3.759H0V4.832h23.834L20.506 1.46l1.43-1.448 5.052 5.12-.714.724z"/></svg>

<?xml version="1.0" encoding="iso-8859-1"?>
<svg xmlns="http://www.w3.org/2000/svg" xmlns:xlink="http://www.w3.org/1999/xlink"><path fill-rule="evenodd"  opacity="0.502" fill="rgb(243, 245, 247)" d="M26.274,5.856 L26.274,6.880 L25.930,6.880 L26.263,7.217 L21.553,11.989 L20.221,10.639 L23.931,6.880 L-0.000,6.880 L-0.000,4.832 L23.834,4.832 L20.506,1.460 L21.936,0.012 L26.988,5.132 L26.274,5.856 Z"/></svg>
